X:4423
T:Drowsy Maggie
M:C
L:1/8
K:E Dorian
E2BE dEBE|E2BE ADFA|E2BE dEBE|BABc dAFA:|!
d2fd c2ec|defg afge|d2fd c2ec|BABc dAFA|!
d2fd c2ec|defg afge|afge fdec|BABc dAFD:|!
